X: 125
T:Hilly-Go Filly-Go
% Nottingham Music Database
P:AABB
S:McCusker Brothers, via EF
M:6/8
K:D
P:A
|:d/2e/2|"D"f2e d2c|"D"d2B A2F|"G"GFG "A7"EFG|"D"FDF "D7"A2A|
"G"BGB dcB|"D"AFA "Bm"d2d|"Em"cde "A7"ABc|"D"d3 -d2:|
P:B
|:A/2d/2|"D"f2f fAd|"D"f2f fAd|"D"f2f "G"g2f|"A"e2e e2c|"Bm"d2d "bb"d2c|
"Bm/a"d2d "g"d2c|"Bm/f+"d2B "E7/g+"e2d|"A7"c2"g"B "f#"AB"e"c|"D"ded cBA|\
"G"B2c d2A|
"D"ded cBA|"G"B2c "D/f+"d2f|"Em"e2e e2e|"Em"e2e efg|"A7"a2A ABc|"D"d3 -d2:|<end>
<start>
